epam-assets/icon-sources/18/file-file_pdf.svg

<svg width="18" height="18" viewBox="0 0 18 18" fill="none" xmlns="http://www.w3.org/2000/svg">
<g id="18/file-file_pdf">
<path id="icon" fill-rule="evenodd" clip-rule="evenodd" d="M9.75 6.75H13.875L9.75 2.625V6.75ZM4.5 1.5H10.5L15 6V15C15 15.8284 14.3284 16.5 13.5 16.5H4.5C3.67157 16.5 3 15.8284 3 15V3C3 2.17157 3.67157 1.5 4.5 1.5ZM7.575 8.55C7.56 8.58 7.3575 9.87 6 12.0675C6 12.0675 3.375 13.4325 3.9975 14.4525C4.5 15.2625 5.7375 14.4225 6.8025 12.4425C6.8025 12.4425 8.1675 11.9625 9.9825 11.8275C9.9825 11.8275 12.8775 13.125 13.275 11.745C13.665 10.35 10.98 10.665 10.5 10.8075C10.5 10.8075 9 9.795 8.625 8.4C8.625 8.4 9.48 5.4375 8.1675 5.475C6.855 5.5125 7.35 7.8225 7.575 8.55ZM8.1825 9.33C8.205 9.3375 8.535 10.2375 9.6 11.175C9.6 11.175 7.8525 11.52 7.0575 11.85C7.0575 11.85 7.8075 10.5525 8.1825 9.33ZM11.13 11.37C11.565 11.25 12.8775 11.4825 12.825 11.73C12.78 11.9775 11.13 11.37 11.13 11.37ZM5.8275 12.75C5.43 13.68 4.7475 14.25 4.575 14.25C4.4025 14.25 5.1 13.05 5.8275 12.75ZM8.1825 7.5525C8.1825 7.5 7.9125 5.9025 8.1825 5.94C8.5875 6 8.1825 7.5 8.1825 7.5525Z" fill="#6C6F80"/>
</g>
</svg>

<svg xmlns="http://www.w3.org/2000/svg" width="18" height="18" fill="none" viewBox="0 0 18 18">
  <path fill="#6C6F80" fill-rule="evenodd" d="M9.75 6.75h4.125L9.75 2.625V6.75ZM4.5 1.5h6L15 6v9a1.5 1.5 0 0 1-1.5 1.5h-9A1.5 1.5 0 0 1 3 15V3a1.5 1.5 0 0 1 1.5-1.5Zm3.075 7.05C7.56 8.58 7.357 9.87 6 12.068c0 0-2.625 1.364-2.002 2.385.502.81 1.74-.03 2.804-2.01 0 0 1.366-.48 3.18-.615 0 0 2.896 1.297 3.293-.083.39-1.395-2.295-1.08-2.775-.938 0 0-1.5-1.012-1.875-2.407 0 0 .855-2.963-.457-2.925-1.313.038-.818 2.348-.593 3.075Zm.607.78c.023.008.353.908 1.418 1.845 0 0-1.747.345-2.542.675 0 0 .75-1.297 1.124-2.52Zm2.948 2.04c.435-.12 1.747.113 1.695.36-.045.247-1.695-.36-1.695-.36Zm-5.303 1.38c-.397.93-1.08 1.5-1.252 1.5-.173 0 .525-1.2 1.252-1.5Zm2.355-5.197c0-.053-.27-1.65 0-1.613.405.06 0 1.56 0 1.612Z" clip-rule="evenodd"/>
</svg>
